Obsidian-SemiLight/actions/16s/arrow-right-double.svg

<svg viewBox="0 0 16 16" xmlns="http://www.w3.org/2000/svg"><path d="m4.2480469 2-.7480469.71875 4.296875 4.125 1.2382812 1.15625-1.2382812 1.15625-4.296875 4.125.2285156.21875.390625.375.1289063.125 4.2988281-4.125 1.953125-1.875-1.953125-1.875zm7.7519531 0v12h1v-12z" fill="#4d4d4d"/></svg>

<svg xmlns="http://www.w3.org/2000/svg" viewBox="0 0 16 16">
  <defs id="defs3051">
    <style type="text/css" id="current-color-scheme">
      .ColorScheme-Text {
        color:#4d4d4d;
      }
      </style>
  </defs>
 <path style="fill:currentColor;fill-opacity:1;stroke:none" 
     d="M 4.2480469 2 L 3.5 2.71875 L 7.796875 6.84375 L 9.0351562 8 L 7.796875 9.15625 L 3.5 13.28125 L 3.7285156 13.5 L 4.1191406 13.875 L 4.2480469 14 L 8.546875 9.875 L 10.5 8 L 8.546875 6.125 L 4.2480469 2 z M 12 2 L 12 14 L 13 14 L 13 2 L 12 2 z "
     class="ColorScheme-Text"
     />
</svg>
